X:4720
T:Polska (Offerdals polska)
A:Jmtland
C:e. Gustav Persa
M:3/4
O:Sweden
R:Polska
Z:Richard Robinson 
%%TUNEURL: http://www.leeds.ac.uk/music/Info/RRTuneBk/gettune/000007a6.html
%%ID:000007a6
K:D lydian
A>f f<d e>c|(3def (3fed (3efg|1\
a>f f<d e>c|(3def fd e2 :|2\
a>f f<d e>d|(3{cd}cBc d4:|
|:\
(3ABA G<A F>A|cB/A/ (3GAB A2|\
(3ABA G<A F>A|cB/A/ (3GAB A2|
(3ABA G<A F>A|cB/A/ (3GAB A>d|\
d>e (3fgf e>c|d2 d4:|
